;FLAVOR:Marlin
;TIME:7600
;Filament used: 3.32567m
;Layer height: 0.13125
;MINX:39.925
;MINY:16.473
;MINZ:0.3
;MAXX:80.075
;MAXY:108.834
;MAXZ:51.128
;Generated with Cura_SteamEngine 4.4.1
M140 S45
M105
M190 S45
M104 S205
M105
M109 S205
M82 ;absolute extrusion mode
G21;(metric values)
G90;(absolute positioning)
M82;(set extruder to absolute mode)
M107;(start with the fan off)
G28;(Home the printer)
G92 E0;(Reset the extruder to 0)
G0 Z5 E5 F500;(Move up and prime the nozzle)
G0 X-1 Z0;(Move outside the printable area)
G1 Y60 E8 F500;(Draw a priming/wiping line to the rear)
G1 X-1;(Move a little closer to the print area)
G1 Y10 E16 F500;(draw more priming/wiping)
G1 E15 F250;(Small retract)
G92 E0;(Zero the extruder)
G92 E0
G92 E0
G1 F2400 E-2.5
;LAYER_COUNT:390
;LAYER:0
M107
G0 F3600 X41.853 Y52.714 Z0.3
;TYPE:SKIRT
G1 F2400 E0
G1 F1500 X42.375 Y52.35 E0.01213
G1 X42.939 Y52.054 E0.02427
G1 X43.536 Y51.831 E0.03642
G1 X44.156 Y51.684 E0.04857
G1 X45.007 Y51.612 E0.06485
G1 X46.895 Y51.611 E0.10084
G1 X47.531 Y51.651 E0.11298
G1 X47.755 Y51.694 E0.11733
G1 X72.9 Y51.71 E0.59665
G1 X73.536 Y51.75 E0.6088
G1 X74.161 Y51.87 E0.62093
G1 X74.767 Y52.067 E0.63308
G1 X75.343 Y52.338 E0.64521
G1 X75.881 Y52.68 E0.65736
G1 X76.371 Y53.086 E0.66949
G1 X76.807 Y53.55 E0.68163
G1 X77.182 Y54.065 E0.69377
G1 X77.489 Y54.623 E0.70591
G1 X77.723 Y55.216 E0.71807
G1 X77.882 Y55.832 E0.73019
G1 X77.962 Y56.464 E0.74234
G1 X77.972 Y56.785 E0.74846
G1 X77.972 Y74.476 E1.08569
G1 X78.064 Y74.537 E1.08779
G1 X78.547 Y74.952 E1.09993
G1 X78.974 Y75.425 E1.11208
G1 X79.338 Y75.948 E1.12423
G1 X79.633 Y76.512 E1.13636
G1 X79.856 Y77.108 E1.14849
G1 X80.003 Y77.728 E1.16064
G1 X80.075 Y78.582 E1.17697
G1 X80.075 Y89.698 E1.38887
G1 X80.035 Y90.334 E1.40102
G1 X79.916 Y90.959 E1.41314
G1 X79.719 Y91.565 E1.42529
G1 X79.448 Y92.141 E1.43742
G1 X79.107 Y92.679 E1.44957
G1 X78.701 Y93.17 E1.46171
G1 X78.237 Y93.606 E1.47385
G1 X77.722 Y93.981 E1.48599
G1 X77.165 Y94.288 E1.49812
G1 X76.573 Y94.523 E1.51026
G1 X75.956 Y94.682 E1.5224
G1 X75.809 Y94.701 E1.52523
G1 X76.261 Y94.787 E1.534
G1 X76.867 Y94.984 E1.54615
G1 X77.443 Y95.255 E1.55828
G1 X77.981 Y95.596 E1.57042
G1 X78.472 Y96.002 E1.58257
G1 X78.908 Y96.466 E1.5947
G1 X79.283 Y96.981 E1.60685
G1 X79.59 Y97.538 E1.61897
G1 X79.825 Y98.13 E1.63111
G1 X79.984 Y98.747 E1.64326
G1 X80.065 Y99.379 E1.6554
G1 X80.075 Y99.703 E1.66158
G1 X80.075 Y103.759 E1.7389
G1 X80.035 Y104.395 E1.75105
G1 X79.916 Y105.02 E1.76317
G1 X79.719 Y105.626 E1.77532
G1 X79.448 Y106.202 E1.78746
G1 X79.107 Y106.74 E1.7996
G1 X78.701 Y107.231 E1.81174
G1 X78.237 Y107.667 E1.82388
G1 X77.722 Y108.042 E1.83602
G1 X77.165 Y108.349 E1.84815
G1 X76.573 Y108.584 E1.86029
G1 X75.956 Y108.743 E1.87243
G1 X75.324 Y108.824 E1.88458
G1 X75 Y108.834 E1.89076
G1 X65.503 Y108.834 E2.07179
G1 X64.867 Y108.794 E2.08394
G1 X64.242 Y108.675 E2.09607
G1 X63.636 Y108.478 E2.10822
G1 X63.06 Y108.207 E2.12035
G1 X62.522 Y107.866 E2.13249
G1 X62.031 Y107.46 E2.14464
G1 X61.595 Y106.996 E2.15677
G1 X61.22 Y106.481 E2.16892
G1 X60.986 Y106.056 E2.17817
G1 X58.014 Y106.056 E2.23482
G1 X57.945 Y106.202 E2.2379
G1 X57.604 Y106.74 E2.25004
G1 X57.198 Y107.231 E2.26218
G1 X56.734 Y107.667 E2.27432
G1 X56.219 Y108.042 E2.28646
G1 X55.662 Y108.349 E2.29859
G1 X55.07 Y108.584 E2.31073
G1 X54.453 Y108.743 E2.32287
G1 X53.821 Y108.824 E2.33502
G1 X53.497 Y108.834 E2.3412
G1 X45 Y108.834 E2.50317
G1 X44.364 Y108.794 E2.51532
G1 X43.739 Y108.675 E2.52745
G1 X43.133 Y108.478 E2.53959
G1 X42.557 Y108.207 E2.55173
G1 X42.019 Y107.866 E2.56387
G1 X41.528 Y107.46 E2.57601
G1 X41.092 Y106.996 E2.58815
G1 X40.717 Y106.481 E2.6003
G1 X40.41 Y105.924 E2.61242
G1 X40.175 Y105.332 E2.62456
G1 X40.016 Y104.715 E2.63671
G1 X39.935 Y104.083 E2.64885
G1 X39.925 Y103.759 E2.65503
G1 X39.925 Y57.179 E3.54295
G1 X39.926 Y57.076 E3.54491
G1 X39.936 Y56.584 E3.55429
G1 X39.989 Y55.949 E3.56644
G1 X40.121 Y55.326 E3.57858
G1 X40.33 Y54.725 E3.59071
G1 X40.612 Y54.154 E3.60285
G1 X40.898 Y53.723 E3.61271
G0 F1350 X40.964 Y53.623
G0 X41.38 Y53.14
G0 X41.853 Y52.714
G0 F3600 X42.19 Y52.896
G1 F1500 X42.706 Y52.562 E3.62443
G1 X43.261 Y52.298 E3.63614
G1 X43.845 Y52.108 E3.64785
G1 X44.45 Y51.995 E3.65958
G1 X45.007 Y51.962 E3.67022
G1 X46.895 Y51.961 E3.70621
G1 X47.509 Y52.001 E3.71793
G1 X47.725 Y52.044 E3.72213
G1 X72.9 Y52.06 E4.20202
G1 X73.513 Y52.1 E4.21373
G1 X74.116 Y52.22 E4.22545
G1 X74.698 Y52.417 E4.23717
G1 X75.25 Y52.687 E4.24888
G1 X75.762 Y53.027 E4.2606
G1 X76.225 Y53.431 E4.27231
G1 X76.632 Y53.891 E4.28402
G1 X76.976 Y54.4 E4.29573
G1 X77.251 Y54.95 E4.30745
G1 X77.452 Y55.531 E4.31917
G1 X77.577 Y56.132 E4.33087
G1 X77.622 Y56.785 E4.34335
G1 X77.622 Y74.663 E4.68414
G1 X77.938 Y74.882 E4.69147
G1 X78.394 Y75.294 E4.70319
G1 X78.792 Y75.763 E4.71491
G1 X79.125 Y76.278 E4.7266
G1 X79.39 Y76.833 E4.73833
G1 X79.579 Y77.418 E4.75004
G1 X79.692 Y78.022 E4.76176
G1 X79.725 Y78.582 E4.77245
G1 X79.725 Y89.698 E4.98435
G1 X79.685 Y90.311 E4.99606
G1 X79.566 Y90.914 E5.00777
G1 X79.369 Y91.496 E5.01949
G1 X79.099 Y92.048 E5.0312
G1 X78.759 Y92.56 E5.04291
G1 X78.356 Y93.024 E5.05463
G1 X77.896 Y93.431 E5.06634
G1 X77.387 Y93.776 E5.07806
G1 X76.838 Y94.051 E5.08976
G1 X76.257 Y94.253 E5.10149
G1 X75.656 Y94.377 E5.11319
G1 X75 Y94.423 E5.12572
G1 X73.723 Y94.423 E5.15006
G1 X73.723 Y94.978 E5.16064
G1 X75 Y94.978 E5.18499
G1 X75.613 Y95.018 E5.1967
G1 X76.216 Y95.137 E5.20841
G1 X76.798 Y95.334 E5.22013
G1 X77.35 Y95.604 E5.23184
G1 X77.862 Y95.944 E5.24356
G1 X78.326 Y96.347 E5.25527
G1 X78.733 Y96.807 E5.26698
G1 X79.078 Y97.316 E5.2787
G1 X79.353 Y97.865 E5.2904
G1 X79.555 Y98.446 E5.30213
G1 X79.679 Y99.047 E5.31383
G1 X79.725 Y99.703 E5.32636
G1 X79.725 Y103.759 E5.40368
G1 X79.685 Y104.372 E5.41539
G1 X79.566 Y104.975 E5.42711
G1 X79.369 Y105.557 E5.43882
G1 X79.099 Y106.109 E5.45053
G1 X78.759 Y106.621 E5.46225
G1 X78.356 Y107.085 E5.47396
G1 X77.896 Y107.492 E5.48567
G1 X77.387 Y107.837 E5.49739
G1 X76.838 Y108.112 E5.5091
G1 X76.257 Y108.314 E5.52082
G1 X75.656 Y108.438 E5.53252
G1 X75 Y108.484 E5.54506
G1 X65.503 Y108.484 E5.72609
G1 X64.89 Y108.444 E5.7378
G1 X64.287 Y108.325 E5.74952
G1 X63.705 Y108.128 E5.76123
G1 X63.153 Y107.858 E5.77294
G1 X62.641 Y107.518 E5.78466
G1 X62.177 Y107.115 E5.79637
G1 X61.77 Y106.655 E5.80808
G1 X61.425 Y106.146 E5.8198
G1 X61.205 Y105.706 E5.82918
G1 X57.793 Y105.706 E5.89422
G1 X57.596 Y106.109 E5.90277
G1 X57.256 Y106.621 E5.91449
G1 X56.853 Y107.085 E5.9262
G1 X56.393 Y107.492 E5.93791
G1 X55.884 Y107.837 E5.94963
G1 X55.335 Y108.112 E5.96134
G1 X54.754 Y108.314 E5.97306
G1 X54.153 Y108.438 E5.98476
G1 X53.497 Y108.484 E5.99729
G1 X45 Y108.484 E6.15927
G1 X44.387 Y108.444 E6.17098
G1 X43.784 Y108.325 E6.18269
G1 X43.202 Y108.128 E6.19441
G1 X42.65 Y107.858 E6.20612
G1 X42.138 Y107.518 E6.21783
G1 X41.674 Y107.115 E6.22955
G1 X41.267 Y106.655 E6.24126
G1 X40.922 Y106.146 E6.25298
G1 X40.647 Y105.597 E6.26468
G1 X40.445 Y105.016 E6.27641
G1 X40.321 Y104.415 E6.28811
G1 X40.275 Y103.759 E6.30064
G1 X40.275 Y57.179 E7.18856
G1 X40.276 Y57.083 E7.19039
G1 X40.286 Y56.591 E7.19977
G1 X40.338 Y55.979 E7.21148
G1 X40.47 Y55.378 E7.22321
G1 X40.678 Y54.8 E7.23492
G1 X40.96 Y54.254 E7.24663
G1 X41.215 Y53.885 E7.25518
G0 F1350 X41.309 Y53.749
G0 X41.722 Y53.294
G0 X42.19 Y52.896
G0 F3600 X42.063 Y53.453
G1 F1500 X42.526 Y53.085 E7.26646
G1 X43.035 Y52.783 E7.27774
G1 X43.579 Y52.553 E7.289
G1 X44.15 Y52.397 E7.30028
G1 X45.008 Y52.312 E7.31672
G1 X46.896 Y52.311 E7.35271
G1 X47.486 Y52.351 E7.36398
G1 X47.695 Y52.394 E7.36805
G1 X72.9 Y52.41 E7.84851
G1 X73.49 Y52.45 E7.85978
G1 X74.069 Y52.57 E7.87105
G1 X74.626 Y52.766 E7.88231
G1 X75.153 Y53.036 E7.8936
G1 X75.637 Y53.375 E7.90486
G1 X76.072 Y53.775 E7.91613
G1 X76.449 Y54.231 E7.9274
G1 X76.761 Y54.733 E7.93867
G1 X77.002 Y55.273 E7.94994
G1 X77.169 Y55.84 E7.96121
G1 X77.257 Y56.425 E7.97249
G1 X77.272 Y56.785 E7.97936
G1 X77.272 Y74.848 E8.32368
G1 X77.329 Y74.879 E8.32491
G1 X77.807 Y75.226 E8.33617
G1 X78.234 Y75.636 E8.34746
G1 X78.602 Y76.099 E8.35873
G1 X78.904 Y76.607 E8.37
G1 X79.134 Y77.151 E8.38125
G1 X79.29 Y77.722 E8.39254
G1 X79.375 Y78.582 E8.40901
G1 X79.375 Y89.698 E8.62091
G1 X79.335 Y90.288 E8.63218
G1 X79.216 Y90.867 E8.64345
G1 X79.02 Y91.425 E8.65472
G1 X78.75 Y91.951 E8.66599
G1 X78.412 Y92.436 E8.67726
G1 X78.012 Y92.871 E8.68853
G1 X77.556 Y93.248 E8.6998
G1 X77.054 Y93.561 E8.71108
G1 X76.515 Y93.802 E8.72234
G1 X75.947 Y93.969 E8.73362
G1 X75.363 Y94.058 E8.74488
G1 X75 Y94.073 E8.75181
G1 X73.373 Y94.073 E8.78282
G1 X73.373 Y95.328 E8.80674
G1 X75 Y95.328 E8.83776
G1 X75.59 Y95.368 E8.84903
G1 X76.169 Y95.487 E8.8603
G1 X76.727 Y95.683 E8.87157
G1 X77.253 Y95.953 E8.88284
G1 X77.738 Y96.291 E8.89411
G1 X78.173 Y96.691 E8.90538
G1 X78.55 Y97.147 E8.91666
G1 X78.863 Y97.649 E8.92793
G1 X79.104 Y98.188 E8.93919
G1 X79.271 Y98.756 E8.95047
G1 X79.36 Y99.34 E8.96173
G1 X79.375 Y99.703 E8.96866
G1 X79.375 Y103.759 E9.04598
G1 X79.335 Y104.349 E9.05725
G1 X79.216 Y104.928 E9.06852
G1 X79.02 Y105.486 E9.07979
G1 X78.75 Y106.012 E9.09106
G1 X78.412 Y106.497 E9.10233
G1 X78.012 Y106.932 E9.11359
G1 X77.556 Y107.309 E9.12487
G1 X77.054 Y107.622 E9.13615
G1 X76.515 Y107.863 E9.1474
G1 X75.947 Y108.03 E9.15869
G1 X75.363 Y108.119 E9.16995
G1 X75 Y108.134 E9.17688
G1 X65.503 Y108.134 E9.35791
G1 X64.913 Y108.094 E9.36918
G1 X64.334 Y107.975 E9.38045
G1 X63.776 Y107.779 E9.39172
G1 X63.25 Y107.509 E9.40299
G1 X62.765 Y107.171 E9.41426
G1 X62.33 Y106.771 E9.42553
G1 X61.953 Y106.315 E9.43681
G1 X61.64 Y105.813 E9.44808
G1 X61.436 Y105.356 E9.45762
G1 X57.563 Y105.356 E9.53145
G1 X57.517 Y105.486 E9.53408
G1 X57.247 Y106.012 E9.54535
G1 X56.909 Y106.497 E9.55662
G1 X56.509 Y106.932 E9.56788
G1 X56.053 Y107.309 E9.57916
G1 X55.551 Y107.622 E9.59044
G1 X55.012 Y107.863 E9.60169
G1 X54.444 Y108.03 E9.61298
G1 X53.86 Y108.119 E9.62424
G1 X53.497 Y108.134 E9.63117
G1 X45 Y108.134 E9.79314
G1 X44.41 Y108.094 E9.80441
G1 X43.831 Y107.975 E9.81568
G1 X43.273 Y107.779 E9.82695
G1 X42.747 Y107.509 E9.83822
G1 X42.262 Y107.171 E9.84949
G1 X41.827 Y106.771 E9.86076
G1 X41.45 Y106.315 E9.87203
G1 X41.137 Y105.813 E9.88331
G1 X40.896 Y105.274 E9.89457
G1 X40.729 Y104.706 E9.90585
G1 X40.64 Y104.122 E9.91711
G1 X40.625 Y103.759 E9.92404
G1 X40.625 Y57.179 E10.81196
G1 X40.626 Y57.09 E10.81365
G1 X40.636 Y56.598 E10.82303
G1 X40.688 Y56.009 E10.83431
G1 X40.819 Y55.433 E10.84557
G1 X41.026 Y54.879 E10.85684
G1 X41.206 Y54.544 E10.86409
G0 F1350 X41.306 Y54.358
G0 X41.654 Y53.88
G0 X42.063 Y53.453
G0 F3600 X42.403 Y53.62
G1 F1500 X42.86 Y53.284 E10.8749
G1 X43.36 Y53.016 E10.88571
G1 X43.892 Y52.82 E10.89652
G1 X44.447 Y52.702 E10.90734
G1 X45.008 Y52.662 E10.91806
G1 X46.896 Y52.661 E10.95405
G1 X47.462 Y52.701 E10.96486
G1 X47.662 Y52.743 E10.96876
G1 X72.9 Y52.76 E11.44985
G1 X73.465 Y52.8 E11.46065
G1 X74.02 Y52.92 E11.47147
G1 X74.552 Y53.116 E11.48228
G1 X75.051 Y53.385 E11.49309
G1 X75.508 Y53.721 E11.5039
G1 X75.912 Y54.119 E11.51471
G1 X76.257 Y54.569 E11.52552
G1 X76.535 Y55.063 E11.53632
G1 X76.741 Y55.592 E11.54715
G1 X76.871 Y56.144 E11.55796
G1 X76.922 Y56.785 E11.57021
G1 X76.922 Y75.056 E11.9185
G1 X77.221 Y75.225 E11.92505
G1 X77.671 Y75.571 E11.93587
G1 X78.067 Y75.976 E11.94666
G1 X78.403 Y76.433 E11.95748
G1 X78.671 Y76.932 E11.96827
G1 X78.867 Y77.465 E11.9791
G1 X78.985 Y78.019 E11.9899
G1 X79.025 Y78.582 E12.00066
G1 X79.025 Y89.698 E12.21255
G1 X78.985 Y90.264 E12.22337
G1 X78.866 Y90.818 E12.23417
G1 X78.67 Y91.35 E12.24498
G1 X78.402 Y91.85 E12.25579
G1 X78.065 Y92.306 E12.2666
G1 X77.668 Y92.711 E12.27741
G1 X77.218 Y93.057 E12.28823
G1 X76.724 Y93.335 E12.29904
G1 X76.196 Y93.541 E12.30984
G1 X75.644 Y93.671 E12.32065
G1 X75 Y93.723 E12.33297
G1 X73.023 Y93.723 E12.37065
G1 X73.023 Y95.678 E12.40792
G1 X75 Y95.678 E12.4456
G1 X75.566 Y95.718 E12.45642
G1 X76.12 Y95.837 E12.46722
G1 X76.652 Y96.033 E12.47803
G1 X77.152 Y96.301 E12.48884
G1 X77.608 Y96.638 E12.49965
G1 X78.013 Y97.035 E12.51046
G1 X78.359 Y97.485 E12.52128
G1 X78.637 Y97.979 E12.53209
G1 X78.843 Y98.507 E12.54289
G1 X78.973 Y99.059 E12.5537
G1 X79.025 Y99.703 E12.56602
G1 X79.025 Y103.759 E12.64333
G1 X78.985 Y104.325 E12.65415
G1 X78.866 Y104.879 E12.66495
G1 X78.67 Y105.411 E12.67576
G1 X78.402 Y105.911 E12.68657
G1 X78.065 Y106.367 E12.69738
G1 X77.668 Y106.772 E12.70819
G1 X77.218 Y107.118 E12.71901
G1 X76.724 Y107.396 E12.72982
G1 X76.196 Y107.602 E12.74062
G1 X75.644 Y107.732 E12.75143
G1 X75 Y107.784 E12.76375
G1 X65.503 Y107.784 E12.94478
G1 X64.937 Y107.744 E12.9556
G1 X64.383 Y107.625 E12.9664
G1 X63.851 Y107.429 E12.97721
G1 X63.351 Y107.161 E12.98802
G1 X62.895 Y106.824 E12.99883
G1 X62.49 Y106.427 E13.00964
G1 X62.144 Y105.977 E13.02046
G1 X61.866 Y105.483 E13.03127
G1 X61.68 Y105.006 E13.04103
G1 X57.316 Y105.006 E13.12421
G1 X57.167 Y105.411 E13.13244
G1 X56.899 Y105.911 E13.14325
G1 X56.562 Y106.367 E13.15406
G1 X56.165 Y106.772 E13.16487
G1 X55.715 Y107.118 E13.17569
G1 X55.221 Y107.396 E13.1865
G1 X54.693 Y107.602 E13.1973
G1 X54.141 Y107.732 E13.20811
G1 X53.497 Y107.784 E13.22043
G1 X45 Y107.784 E13.3824
G1 X44.434 Y107.744 E13.39322
G1 X43.88 Y107.625 E13.40402
G1 X43.348 Y107.429 E13.41483
G1 X42.848 Y107.161 E13.42564
G1 X42.392 Y106.824 E13.43645
G1 X41.987 Y106.427 E13.44726
G1 X41.641 Y105.977 E13.45808
G1 X41.363 Y105.483 E13.46888
G1 X41.157 Y104.955 E13.47969
G1 X41.027 Y104.403 E13.4905
G1 X40.975 Y103.759 E13.50281
G1 X40.975 Y57.179 E14.39073
G1 X40.976 Y57.097 E14.3923
G1 X40.986 Y56.605 E14.40168
G1 X41.037 Y56.04 E14.41249
G1 X41.168 Y55.489 E14.42329
G1 X41.374 Y54.96 E14.43411
G1 X41.525 Y54.693 E14.43995
G0 F1350 X41.653 Y54.467
G0 X41.998 Y54.017
G0 X42.403 Y53.62
G0 F3600 X42.742 Y53.795
G1 F1500 X43.192 Y53.493 E14.45029
G1 X43.682 Y53.261 E14.46062
G1 X44.2 Y53.102 E14.47095
G1 X44.736 Y53.022 E14.48128
G1 X45.008 Y53.012 E14.48647
G1 X46.896 Y53.011 E14.52246
G1 X47.436 Y53.051 E14.53278
G1 X47.626 Y53.093 E14.53649
G1 X72.899 Y53.11 E15.01825
G1 X73.44 Y53.15 E15.02859
G1 X73.968 Y53.27 E15.03891
G1 X74.474 Y53.465 E15.04925
G1 X74.945 Y53.733 E15.05958
G1 X75.371 Y54.067 E15.0699
G1 X75.744 Y54.461 E15.08024
G1 X76.055 Y54.905 E15.09057
G1 X76.297 Y55.389 E15.10089
G1 X76.465 Y55.904 E15.11121
G1 X76.556 Y56.439 E15.12156
G1 X76.572 Y56.785 E15.12816
G1 X76.572 Y75.265 E15.48043
G1 X76.642 Y75.294 E15.48187
G1 X77.107 Y75.571 E15.49219
G1 X77.527 Y75.914 E15.50253
G1 X77.892 Y76.314 E15.51285
G1 X78.194 Y76.764 E15.52318
G1 X78.427 Y77.254 E15.53352
G1 X78.585 Y77.772 E15.54385
G1 X78.665 Y78.308 E15.55418
G1 X78.675 Y78.582 E15.5594
G1 X78.675 Y89.698 E15.7713
G1 X78.635 Y90.238 E15.78162
G1 X78.516 Y90.767 E15.79196
G1 X78.321 Y91.272 E15.80228
G1 X78.053 Y91.744 E15.81262
G1 X77.719 Y92.17 E15.82294
G1 X77.326 Y92.543 E15.83327
G1 X76.882 Y92.854 E15.8436
G1 X76.398 Y93.097 E15.85393
G1 X75.883 Y93.265 E15.86425
G1 X75.349 Y93.356 E15.87458
G1 X75 Y93.373 E15.88124
G1 X72.673 Y93.373 E15.9256
G1 X72.673 Y96.028 E15.97621
G1 X75 Y96.028 E16.02057
G1 X75.54 Y96.068 E16.03089
G1 X76.069 Y96.187 E16.04122
G1 X76.574 Y96.382 E16.05154
G1 X77.046 Y96.65 E16.06189
G1 X77.472 Y96.984 E16.07221
G1 X77.845 Y97.377 E16.08254
G1 X78.156 Y97.821 E16.09287
G1 X78.399 Y98.305 E16.10319
G1 X78.567 Y98.82 E16.11352
G1 X78.658 Y99.354 E16.12385
G1 X78.675 Y99.703 E16.13051
G1 X78.675 Y103.759 E16.20782
G1 X78.635 Y104.299 E16.21814
G1 X78.516 Y104.828 E16.22848
G1 X78.321 Y105.333 E16.2388
G1 X78.053 Y105.805 E16.24915
G1 X77.719 Y106.231 E16.25947
G1 X77.326 Y106.604 E16.26979
G1 X76.882 Y106.915 E16.28013
G1 X76.398 Y107.158 E16.29045
G1 X75.883 Y107.326 E16.30078
G1 X75.349 Y107.417 E16.3111
G1 X75 Y107.434 E16.31776
G1 X65.503 Y107.434 E16.4988
G1 X64.963 Y107.394 E16.50912
G1 X64.434 Y107.275 E16.51945
G1 X63.929 Y107.08 E16.52977
G1 X63.457 Y106.812 E16.54012
G1 X63.031 Y106.478 E16.55044
G1 X62.658 Y106.085 E16.56077
G1 X62.347 Y105.641 E16.5711
G1 X62.104 Y105.157 E16.58142
G1 X61.941 Y104.656 E16.59147
